!!!COM: Messiaen, Olivier (Eugène Prosper Charles)
!!!OTL: [T792_Mes-w34p26m1-10]
**kern	**dynam	**kern	**dynam	**kern	**dynam
*grp:A	*grp:A	*grp:B	*	*grp:B	*grp:B
*part2	*part2	*part1	*	*part1	*part1
*staff3	*	*staff2	*	*staff1	*
*I"Pedals	*	*I"Organ	*	*	*
*I'Ped.	*	*I'Org.	*	*	*
!!pagebreak:original
*clefF4	*	*clefG2	*	*clefG2	*
*k[]	*	*k[]	*	*k[]	*
*C:	*	*C:	*	*C:	*
*M2/4	*	*M2/4	*	*M2/4	*
=1	=1	=1	=1	=1	=1
!	!	!	!	!LO:TX:t=[quarter]=60	!
!	!	!	!	!LO:TX:a:rj:t=R&colon;	!
!	!	!	!	!LO:TX:a:B:t=Presque lent	!
!LO:TX:b:t=(rangapradîpaka, par retrait du 1/4)	!	!	!	!LO:TX:rj:t=r	!LO:DY:t=legato %s
4ryy	.	2r	.	(8.eee	ff
!	!	!	!	!LO:TX:a:t=e	!
.	.	.	.	16een	.
!LO:TX:a:t=(tir. G,P)	!	!	!	!LO:TX:a:t=l	!
8ryy	.	.	.	8ee-X	.
!	!	!	!	!LO:TX:a:t=a	!
16ryy	.	.	.	8an,)	.
!	!LO:DY:t=legato %s	!LO:TX:a:t=GP&colon;	!	!	!
16ryy	4ryy	.	.	.	.
*	*	*	*	*clefF4	*
=2	=2	=2	=2	=2	=2
*M5/8	*	*M5/8	*	*M5/8	*
!	!	!	!	!LO:TX:a:t=t	!
8ryy	.	8r	.	[2DDn	.
8ryy	.	16r	.	.	.
!	!	!	!LO:DY:t=legato %s	!	!
.	.	[16B-X [16g#X	4ryy	.	.
16ryy	.	4B-_ 4g#_	.	.	.
16ryy	.	.	.	.	.
32ryy	.	.	.	.	.
16.ryy	.	.	.	.	.
16.ryy	.	16B-LL] 16g#]	.	16DD,]	.
*	*	*	*	*clefG2	*
!	!	!	!	!LO:TX:a:t=i	!
.	.	16cnJJ 16bn	.	(16fff#X	.
32ryy	.	.	.	.	.
!!linebreak:original
=3	=3	=3	=3	=3	=3
*M11/16	*	*M11/16	*	*M11/16	*
!	!	!	!	!LO:TX:a:t=o	!
4ryy	.	16.dnLL 16.cc#X	.	[2bbn)	.
.	.	[32fnJJk [32een	.	.	.
.	.	8f/_ 8ee/_	.	.	.
8ryy	.	8f/_ 8ee/_	.	.	.
16ryy	.	16.f/LL] 16.ee/]	.	.	.
16ryy	.	.	.	.	.
.	.	[32a-XJJk [32cc#X	.	.	.
8ryy	.	32a-KLL] 32cc#X]	.	8.bb,]	.
.	.	16.dnJJ 16.b-X	.	.	.
16ryy	.	16An 16g#X	.	.	.
=4	=4	=4	=4	=4	=4
*M7/16	*	*M7/16	*	*M7/16	*
!	!	!	!	!LO:TX:a:t=n	!
32ryy	.	16.Bn 16.f#X	.	[4e-X	.
16.ryy	.	.	.	.	.
*	*	*clefF4	*	*	*
.	.	[32Gn [32c#X	.	.	.
16.ryy	.	32GKLL] 32c#]	.	.	.
.	.	[16.CnJJ [16.Bn	.	.	.
32ryy	.	.	.	.	.
8.ryy	.	8.C_ 8.Bn_	.	8.e-,]	.
!!linebreak:original
=5	=5	=5	=5	=5	=5
*M3/16	*	*M3/16	*	*M3/16	*
!	!	!	!	!LO:TX:a:t=(locatif&colon; en)	!
16ryy	.	16.C] 16.B]	.	(8.en	.
16ryy	.	.	.	.	.
*	*	*clefG2	*	*	*
!	!	!LO:TX:b:B:t=1	!	!	!
!	!	!LO:TX:b:B:t=5	!	!	!
.	.	[32B-X, [32an	.	.	.
16ryy	.	16B-] 16a]	.	.	.
=6	=6	=6	=6	=6	=6
!	!	!LO:TX:b:B:t=2	!	!	!
!	!	!LO:TX:b:B:t=4	!	!	!
16%3ryy	.	16.e-XLL 16.gn	.	8.fn	.
!	!	!LO:TX:b:B:t=1	!	!	!
!	!	!LO:TX:b:B:t=5	!	!	!
.	.	32dnJJk 32cc#X	.	.	.
!	!	!LO:TX:b:B:t=1	!	!	!
!	!	!LO:TX:b:B:t=2	!	!	!
.	.	32a-XLLL 32ccn	.	.	.
!	!	!LO:TX:b:B:t=1	!	!	!
!	!	!LO:TX:b:B:t=4	!	!	!
.	.	[32f#XJJJ [32ddn	.	.	.
=7	=7	=7	=7	=7	=7
!	!	!LO:TX:b:B:t=1	!	!	!
!	!	!LO:TX:b:B:t=3	!	!	!
16ryy	.	16f#] 16ddn]	.	8.een	.
!	!	!LO:TX:b:B:t=1	!	!	!
!	!	!LO:TX:b:B:t=5	!	!	!
16ryy	.	32e-XLLL 32cc#X	.	.	.
!	!	!LO:TX:b:B:t=1	!	!	!
!	!	!LO:TX:b:B:t=3	!	!	!
.	.	32fnJJJ 32bn	.	.	.
!	!	!LO:TX:b:B:t=1	!	!	!
!	!	!LO:TX:b:B:t=5	!	!	!
16ryy	.	[16B-X [16an	.	.	.
=8	=8	=8	=8	=8	=8
*M5/16	*	*M5/16	*	*M5/16	*
8ryy	.	4B-_ 4a_	.	[4ff#X)	.
8ryy	.	.	.	.	.
16ryy	.	16B-,] 16a]	.	16ff#,]	.
!!linebreak:original
=9	=9	=9	=9	=9	=9
*M4/4	*	*M4/4	*	*M4/4	*
!	!	!LO:TX:b:B:t=1	!	!	!
!	!	!LO:TX:b:B:t=5	!	!LO:TX:a:t=Dieu	!
16.ryy	.	16enLL 16ddn	.	1bbn^,	.
!	!	!LO:TX:b:B:t=2	!	!	!
!	!	!LO:TX:b:B:t=4	!	!	!
.	.	[16f#XJJ [16ccn	.	.	.
32ryy	.	.	.	.	.
8ryy	.	32f#KLL] 32cc]	.	.	.
.	.	[16.gnJJ [16.ff#X	.	.	.
32ryy	.	8g_ 8ff#_	.	.	.
16.ryy	.	.	.	.	.
8ryy	.	8g_ 8ff#_	.	.	.
16ryy	.	32gKLL] 32ff#]	.	.	.
.	.	16fn 16ee-X	.	.	.
8.ryy	.	.	.	.	.
.	.	[32enJJk [32ddn	.	.	.
.	.	16enLL] 16ddn]	.	.	.
.	.	16c#XJJ 16ccn	.	.	.
8.ryy	.	16.e-XLL 16.b-X	.	.	.
.	.	[32anJJk [32cc#X	.	.	.
.	.	32aKLL] 32cc#]	.	.	.
.	.	[16.b-XJJ [16.een	.	.	.
16ryy	.	.	.	.	.
=10	=10	=10	=10	=10	=10
*M5/16	*	*M5/16	*	*M5/16	*
32ryy	.	8b-X_ 8een_	.	8aan~,L	.
16.ryy	.	.	.	.	.
16ryy	.	16b-_ 16ee_	.	(16ee-Xk	.
32ryy	.	16.b-] 16.ee]	.	8a-X,J)	.
16.ryy	.	.	.	.	.
.	.	[32c#X [32ddn	.	.	.
=	=	=	=	=	=
*-	*-	*-	*-	*-	*-
!!!system-decoration: [({(s1,s2)})]s3
